X:1
T:Senex puerum portabat - Victoria
T:#
%%score [ 1 2 3 4 ]
L:1/8
Q:1/4=120
M:4/2
K:C
V:1 treble nm="Soprano" snm="S"
V:2 treble nm="Alto" snm="A"
V:3 treble-8 nm="Tenor" snm="T"
V:4 bass nm="Bass" snm="B"
V:1
"^Senex puerum portabat" E16 | D8 E6 E2 | E4 ^F4 G8 | C4 (c8 B2 A2 | G4) (A8 G2 ^F2 | %5
w: Se-|nex pu- e-|rum por- ta-|bat, por­ * *|* ta­ * *|
 G4 E4"^Tomás Luis de Victoria\n(1548-1611)" !courtesy!=F8) | E8 z4 A4 | (B2 c2 d2 B2 c6 B2 | %8
w: |bat, por-|ta­ * * * * *|
 A4 G6 F2 E2 D2 | C8) D8 | z4 A8 ^G4 | A6 A2 A4 B4 | (c12 B4 | A8) ^G4 B4- | B4 B4 c8 | B4 ^G8 G4 | %16
w: |* bat,|se- nex|pu- e- rum por-|ta­ *|* bat, pu­|* er au-|tem, pu- er|
 (A12 ^G2 ^F2) | ^G8 z4 A4 | B4 ^c4 d8 | G8 z4 G4 | A4 B4 (c8- | c4 B2 A2 ^G6 A2) | (B4 c4) B8 | %23
w: au­ * *|tem se-|nem re- ge-|bat, se-|nem re- ge­||* * bat,|
 z4 A4 B4 ^c4 | (d6 c2 B2 A2 A4- | A4 ^G2 ^F2) G4 E4 | F6 F2 E4 D4 | E8 z8 | z8 B8 | %29
w: se- nem re-|ge­ * * * *|* * * bat: quem|Vir- go pe- pe-|rit,|quem|
 c6 c2 (B4 A4- | A4) ^G4 A8 | z4 A4 B8 | c8 G4 c4 | B4 A4 B8 | A8 z4 G4 | G4 ^F4 G8 | (E6 D2 E8) | %37
w: Vir- go pe­ *|* pe- rit,|et post|par- tum Vir-|go per- man-|sit, Vir-|go per- man-|sit, * *|
 z8 B8- | B8 ^c8 | d8 G4 c4 | B4 G4 (A6 B2 | c2 B2 B2 AG A6 G2 | A2 B2 c6 B2 B4-) | %43
w: et|* post|par- tum Vir-|go per- man­ *|||
 (B2 A2 A8 ^G4) | A8 z8 | z8 z4 A4 | A4 ^G4 (A2 B2 c2 d2 | e6 d2 c2 B2 A4-) | A4 A4 ^G8 | %49
w: |sit:|ip-|sum, quem ge­ * * *||* nu- it,|
 (c6 B2 A4) G4 | (F4 E8 D4) | E16- | E16 | z16 | z4 A4 A4 ^G4 | (A2 B2 c2 d2 e6 dc | B4) B4 A8 | %57
w: a­ * * do-|ra­ * *|vit,|||ip- sum, quem|ge­ * * * * * *|* nu- it,|
 z4 c8 B4- | B4 (A6 G2 G4 | A8) ^G4 G4 | A4 (c6 A2 B4 | c6 B2 A8) | ^G16 |] %63
w: a- do­|* ra­ * *|* vit, a-|do- ra­ * *||vit.|
V:2
 z16 | z8 A,8- | A,8 G,8 | A,6 A,2 A,4 B,4 | (C12 B,2 A,2 | B,4 ^C4 D8-) | %6
w: |Se­|* nex|pu- e- rum por-|ta­ * *||
 (D4 !courtesy!=C2 B,2 C8) | B,8 z4 E4- | E4 D4 E6 E2 | E4 ^F4 (G8- | G4 !courtesy!=F2 E2 D8) | %11
w: |bat, se­|* nex pu- e-|rum por- ta­||
 E16 | z4 E4 (F2 E2 E4- | E4 D4) E8- | E16 | z4 B,4 B,4 (C4- | C4 D4) E8 | z4 E8 E4 | (G8 F8) | %19
w: bat,|por- ta­ * *|* * bat,||pu- er au­|* * tem,|pu- er|au­ *|
 E4 C4 D4 E4 | (F12 E2 D2 | C4 D4 E8) | E8 z4 E4 | D4 C4 (G8- | G4 F2 E2 F8) | E8 z4 B,4 | %26
w: tem se- nem re-|ge­ * *||bat, se-|nem re- ge­||bat: quem|
 C6 C2 B,4 A,4 | B,4 E4 F6 F2 | E4 D4 E4 B,4 | E6 C2 D4 D4 | E8 z4 E4 | ^F8 G8 | %32
w: Vir- go pe- pe-|rit, quem Vir- go|pe- pe- rit, quem|Vir- go pe- pe-|rit, et|post par-|
 C4 F4 (E2 D2 E2 ^F2 | ^G4 A8) G4 | (A2 G2 F2 E2 D8) | E4 C4 D4 D4 | (E4 A,2 B,2 C2 D2 E4-) | %37
w: tum Vir- go * * *|* * per-|man­ * * * *|sit, Vir- go per-|man­ * * * * *|
 (E4 D4) E8 | z4 E8 E4 | D8 C4 E4 | D4 B,4 D8 | G,4 G4 G4 F4 | (E6 D2 E8) | (F8 E8) | E16 | %45
w: * * sit,|et post|par- tum Vir-|go per- man-|sit, vir- go per-|man­ * *||sit:|
 z4 E4 E4 D4 | E4 B,4 C4 E4 | E4 E4 (F4 E4-) | E4 D4 E8 | (G6 F2 E2 D2 E4) | D4 (C6 B,2 A,4- | %51
w: ip- sum, quem|ge- nu- it, ip-|sum, quem ge­ *|* nu- it,|a­ * * * *|do- ra­ * *|
 A,4 ^G,4) A,4 C4 | C4 B,4 (C2 B,2 C2 D2) | E4 B,4 C4 E4 | E4 D4 E6 E2 | C4 (A,2 B,2 C2 D2 E2 F2 | %56
w: * * vit, ip-|sum, quem ge­ * * *|* nu- it, ip-|sum quem ge- nu-|it, a­ * * * * *|
 G4) (D2 E2 F2 G2 A4) | (E6 F2 G6 FE) | (D2 E2 F6 E2 E4- | E4 D4) E8- | E16- | E16- | E16 |] %63
w: * do­ * * * *|ra­ * * * *||* * vit.||||
V:3
 z16 | z16 | z16 | z16 | z8 E8- | E8 D8 | E6 E2 E4 ^F4 | G8 C4 (c4- | c4 B2 A2) G8 | A4 (c8 B2 A2 | %10
w: ||||Se­|* nex|pu- e- rum por-|ta- bat, por­|* * * ta-|bat, por­ * *|
 B2 c2 d6 B2 d4-) | (d4 c2 B2 c2 A2 e4- | e2 d2 c2 B2 A4 ^G4) | A8 B4 ^G4- | G4 ^G4 A8 | ^G8 z8 | %16
w: |||ta- bat, pu­|* er au-|tem,|
 z8 B8- | B4 B4 c8 | B4 G4 A4 B4 | c8 B8 | z8 G8 | A4 B4 (c4 B2 A2) | (^G4 A8 G4) | %23
w: pu­|* er au-|tem se- nem re-|ge- bat,|se-|nem re- ge­ * *||
 A8 z4 !courtesy!=G4 | A4 A4 d8 | B8 z4 E4 | A6 A2 G4 F4 | E4 B4 c6 c2 | (B4 A8) ^G4 | A8 z4 A4 | %30
w: bat, se-|nem re- ge-|bat: quem|Vir- go pe- pe-|rit, quem vir- go|pe­ * pe-|rit, et|
 (B8 ^c8) | d8 G4 G4 | (A2 G2 A2 B2 c4) A4 | (e4 c4 d4 e4) | A4 c4 c4 B4 | (c4 A4) G8 | %36
w: post *|par- tum Vir-|go * * * * per-|man­ * * *|sit, Vir- go per-|man­ * sit,|
 z4 c4 c4 B4 | (A12 ^G2 ^F2 | ^G8) A8 | z4 D4 E8 | G8 D8 | z8 z4 d4 | d4 c4 (A4 B4) | (c4 d4 B8) | %44
w: Vir- go per-|man­ * *|* sit,|et post|par- tum|Vir-|go per- man­ *||
 A4 c4 c4 B4 | (c6 B2 A4) A4 | B8 z4 c4 | c4 B4 (c6 B2) | A4 A4 B8 | (e6 d2 c6 B2 | A4) ^G4 (A8 | %51
w: sit: ip- sum, quem|ge­ * * nu-|it, ip-|sum, quem ge­ *|* nu- it,|a­ * * *|* do- ra­|
 B8) c4 A4 | A4 ^G4 (A6 B2) | (c2 d2 e6 d2 c2 B2 | A6 B2 c4) B4 | A8 z4 (G4- | %56
w: * vit, ip-|sum, quem ge­ *||* * * nu-|it, a­|
 G2 A2 B2 c2 d4) (A2 B2 | c2 d2 e8 d2 c2) | (B4 c4) (d4 c2 B2 | A8) B4 B4 | (A2 G2 A2 B2 c4 B4) | %61
w: * * * * * do­ *||* * ra­ * *|* vit, a-|do­ * * * * *|
 (A6 B2 c8) | B16 |] %63
w: ra­ * *|vit.|
V:4
 z16 | z16 | z16 | z16 | z16 | z16 | A,,16 | G,,8 A,,6 A,,2 | A,,4 B,,4 C,8 | A,,4 A,4 (G,6 F,2 | %10
w: ||||||Se-|nex pu- e-|rum por- ta-|bat, por- ta­ *|
 E,4 D,2 C,2 B,,8) | A,,4 A,8 ^G,4 | A,6 A,2 A,4 E,4 | F,8 E,4 E,4- | E,4 E,4 A,,8 | E,4 E,8 E,4 | %16
w: |bat, se- nex|pu- e- rum por-|ta- bat, pu­|* er au-|tem, pu- er|
 F,8 E,8- | E,4 E,4 C,4 A,,4 | (E,8 D,8) | C,8 (G,6 F,E, | D,8) C,8 | F,8 E,8- | E,4 C,4 D,4 E,4 | %23
w: au- tem|* se- nem re-|ge­ *|bat, pu­ * *|* er|au- tem|* se- nem re-|
 F,8 E,4 E,4 | D,16 | E,16 | z16 | z4 E,4 A,6 A,2 | G,4 F,4 E,8 | z4 A,4 G,4 F,4 | E,6 E,2 A,,8 | %31
w: ge- bat, re-|ge-|bat:||quem Vir- go|pe- pe- rit,|quem Vir- go|pe- pe- rit,|
 z16 | z16 | z8 z4 E,4 | F,8 G,8 | C,4 C4 C4 B,4 | (A,12 G,4) | F,8 E,8- | E,8 z4 A,,4 | B,,8 C,8 | %40
w: ||et|post par-|tum Vir- go per-|man­ *|* sit,|* et|post par-|
 G,,4 G,4 G,4 F,4 | (E,8 D,8) | A,,4 A,4 A,4 G,4 | (F,4 D,4 E,8) | A,,4 A,4 A,4 ^G,4 | %45
w: tum Vir- go per-|man­ *|sit, Vir- go per-|man­ * *|sit: ip- sum, quem|
 (A,6 !courtesy!=G,2 F,4) F,4 | E,8 z4 A,4 | A,4 ^G,4 (A,6 =G,2) | F,4 F,4 E,8 | C,12 C,4 | %50
w: ge­ * * nu-|it, ip-|sum quem ge­ *|* nu- it,|a- do-|
 (D,4 E,4 F,8 | E,8) A,,8 | z8 z4 A,4 | A,4 ^G,4 (A,6 =G,2 | F,4) F,4 E,8 | z4 (A,,6 B,,2 C,2 D,2 | %56
w: ra­ * *|* vit,|ip-|sum quem ge­ *|* nu- it,|a­ * * *|
 E,2 F,2 G,4) (D,2 E,2 F,2 G,2 | A,6 G,F, E,2 F,2 G,4-) | (G,4 F,2 E,2 D,4 E,4) | F,8 E,8 | %60
w: * * * do­ * * *|||ra- vit,|
 z4 A,,8 ^G,,4 | A,,16 | E,16 |] %63
w: a- do-|ra-|vit.|

